icons/calendar.svg

<svg xmlns="http://www.w3.org/2000/svg" viewBox="0 0 51.26 51.26">
  <g fill="#FFFFFF">
    <path d="M16 16.12a.63.63 0 0 1-.63-.63V11a.63.63 0 0 1 1.25 0v4.53a.63.63 0 0 1-.62.59Z"/>
    <path d="M38.74 13h-1.55v2.48a1.88 1.88 0 1 1-3.75 0V13H17.86v2.48a1.88 1.88 0 1 1-3.75 0V13h-1.57a1.44 1.44 0 0 0-1.44 1.44v4.22h29.08v-4.21A1.44 1.44 0 0 0 38.74 13Z"/>
    <path d="M35.32 16.12a.63.63 0 0 1-.63-.63V11a.63.63 0 0 1 1.25 0v4.53a.63.63 0 0 1-.62.59ZM11.08 20v18.85a1.43 1.43 0 0 0 1.43 1.43h26.21a1.44 1.44 0 0 0 1.44-1.43V20ZM16 36.3a.91.91 0 1 1 .9-.9.9.9 0 0 1-.9.9Zm0-3.86a.91.91 0 1 1 .9-.91.9.9 0 0 1-.9.91Zm0-3.86a.91.91 0 1 1 .9-.91.91.91 0 0 1-.9.91Zm3.82 2.05a.91.91 0 1 1-.9.9.9.9 0 0 1 .89-.9Zm-.9-3a.91.91 0 1 1 .9.91.9.9 0 0 1-.91-.87Zm.93 8.63a.91.91 0 1 1 .91-.9.9.9 0 0 1-.92.94Zm0-11.58a.91.91 0 1 1 .91-.91.91.91 0 0 1-.92.95Zm3.83 5.91a.91.91 0 1 1-.91.9.9.9 0 0 1 .9-.86Zm-.91-3a.91.91 0 1 1 .91.91.91.91 0 0 1-.92-.83Zm.93 8.63a.91.91 0 1 1 .91-.9.9.9 0 0 1-.92.98Zm0-11.58a.91.91 0 1 1 .91-.91.91.91 0 0 1-.92.99Zm3.84 11.66a.91.91 0 1 1 .91-.9.9.9 0 0 1-.91.9Zm-.93-8.63a.91.91 0 1 1 .91.91.91.91 0 0 1-.91-.91Zm.93 4.77a.91.91 0 1 1 .91-.91.91.91 0 0 1-.91.91Zm0-7.72a.91.91 0 1 1 .91-.91.91.91 0 0 1-.91.91Zm3.85 11.58a.91.91 0 0 1 0-1.81.91.91 0 1 1 0 1.81Zm-.93-8.63a.91.91 0 1 1 .91.91.91.91 0 0 1-.91-.91Zm.93 4.77a.91.91 0 1 1 .91-.91.9.9 0 0 1-.91.91Zm0-7.72a.91.91 0 1 1 .91-.91.9.9 0 0 1-.91.91Zm3.86 7.72a.91.91 0 1 1 .9-.91.9.9 0 0 1-.9.91Zm0-3.86a.91.91 0 1 1 .9-.91.91.91 0 0 1-.9.91Zm0-3.86a.91.91 0 1 1 .9-.91.91.91 0 0 1-.9.91Z"/>
  </g>
</svg>

<svg xmlns="http://www.w3.org/2000/svg" viewBox="0 0 51.26 51.26"><defs><style>.cls-1{fill:#fff;}</style></defs><g id="Layer_2" data-name="Layer 2"><path class="cls-1" d="M16,16.12a.63.63,0,0,1-.63-.63V11a.63.63,0,0,1,1.25,0v4.53A.63.63,0,0,1,16,16.12Z"/><path class="cls-1" d="M38.74,13H37.19v2.48a1.88,1.88,0,1,1-3.75,0V13H17.86v2.48a1.88,1.88,0,1,1-3.75,0V13H12.54a1.44,1.44,0,0,0-1.44,1.44v4.22H40.18V14.45A1.44,1.44,0,0,0,38.74,13Z"/><path class="cls-1" d="M35.32,16.12a.63.63,0,0,1-.63-.63V11a.63.63,0,0,1,1.25,0v4.53A.63.63,0,0,1,35.32,16.12Z"/><path class="cls-1" d="M11.08,20V38.85a1.43,1.43,0,0,0,1.43,1.43H38.72a1.44,1.44,0,0,0,1.44-1.43V20ZM16,36.3a.91.91,0,1,1,.9-.9A.9.9,0,0,1,16,36.3Zm0-3.86a.91.91,0,1,1,.9-.91A.9.9,0,0,1,16,32.44Zm0-3.86a.91.91,0,1,1,.9-.91A.91.91,0,0,1,16,28.58Zm3.82,2.05a.91.91,0,1,1-.9.9A.9.9,0,0,1,19.81,30.63Zm-.9-3a.91.91,0,1,1,.9.91A.9.9,0,0,1,18.91,27.67Zm.93,8.63a.91.91,0,1,1,.91-.9A.9.9,0,0,1,19.84,36.3Zm0-11.58a.91.91,0,1,1,.91-.91A.91.91,0,0,1,19.84,24.72Zm3.83,5.91a.91.91,0,1,1-.91.9A.9.9,0,0,1,23.67,30.63Zm-.91-3a.91.91,0,1,1,.91.91A.91.91,0,0,1,22.76,27.67Zm.93,8.63a.91.91,0,1,1,.91-.9A.9.9,0,0,1,23.69,36.3Zm0-11.58a.91.91,0,1,1,.91-.91A.91.91,0,0,1,23.69,24.72ZM27.54,36.3a.91.91,0,1,1,.91-.9A.9.9,0,0,1,27.54,36.3Zm-.93-8.63a.91.91,0,1,1,.91.91A.91.91,0,0,1,26.61,27.67Zm.93,4.77a.91.91,0,1,1,.91-.91A.91.91,0,0,1,27.54,32.44Zm0-7.72a.91.91,0,1,1,.91-.91A.91.91,0,0,1,27.54,24.72ZM31.39,36.3a.91.91,0,0,1,0-1.81.91.91,0,1,1,0,1.81Zm-.93-8.63a.91.91,0,1,1,.91.91A.91.91,0,0,1,30.46,27.67Zm.93,4.77a.91.91,0,1,1,.91-.91A.9.9,0,0,1,31.39,32.44Zm0-7.72a.91.91,0,1,1,.91-.91A.9.9,0,0,1,31.39,24.72Zm3.86,7.72a.91.91,0,1,1,.9-.91A.9.9,0,0,1,35.25,32.44Zm0-3.86a.91.91,0,1,1,.9-.91A.91.91,0,0,1,35.25,28.58Zm0-3.86a.91.91,0,1,1,.9-.91A.91.91,0,0,1,35.25,24.72Z"/></g></svg>
